X: 1
T:Lucy Cassidy
M:C
L:1/8
Q:80
C:George McIntyre
S:Hornpipe
K:HP
a3/4g/4|
{fg}fa3/4f/4{gef}e{g}d3/4e/4|
{g}fA/2{gAGAG}A/2{g}B3/4{d}G/4{e}G3/4{d}B/4|  !
{g}G3/4B/4{gde}d3/4G/4{a}g3/4f/4{g}e3/4d/4|
{g}c3/4d/4{gef}e3/4c/4{gAGAG}Aa3/4g/4|
{fg}fa3/4f/4{gef}e{g}d3/4e/4|  !
{g}fA/2{gAGAG}A/2{g}B3/4{d}G/4{e}G3/4{d}B/4|
{g}G3/4B/4{gde}d3/4G/4{a}g3/4f/4{g}e3/4d/4|
{g}A3/4{d}c/4{gef}e3/4c/4{Gdc}d:| |:  !
{g}f3/4g/4|
{ag}ad3/4f/4a3/4f/4{g}d3/4B/4|
{g}G3/4B/4{gde}d3/4G/4{g}B3/4{d}G/4{e}G3/4{d}B/4|  !
{g}G3/4B/4{gde}d3/4G/4{a}g3/4f/4{g}e3/4d/4|
{g}c3/4d/4{gef}e3/4c/4{gAGAG}A{g}f3/4g/4|
{ag}ad3/4f/4a3/4f/4{g}d3/4B/4|  !
{g}G3/4B/4{gde}d3/4G/4{g}B3/4{d}G/4{e}G3/4{d}B/4|
{g}G3/4B/4{gde}d3/4G/4{a}g3/4f/4{g}e3/4d/4|
{g}A3/4{d}c/4{gef}e3/4c/4{Gdc}d:| |:  !
a|
A3/4d/4{g}f3/4A/4{g}d3/4f/4{g}A3/4d/4|
{g}fA/2{gAGAG}A/2{g}B3/4{d}G/4{e}G3/4{d}B/4|
{g}G3/4B/4{gde}d3/4G/4{a}g3/4f/4{g}e3/4d/4|  !
{g}c3/4d/4{gef}e3/4c/4{gAGAG}Aa|
A3/4d/4{g}f3/4A/4{g}d3/4f/4{g}A3/4d/4|
{g}fA/2{gAGAG}A/2{g}B3/4{d}G/4{e}G3/4{d}B/4|  !
{g}G3/4B/4{gde}d3/4G/4{a}g3/4f/4{g}e3/4d/4|
{g}A3/4{d}c/4{gef}e3/4c/4{Gdc}d:| |:
{g}f3/4g/4|  !
{ag}ad3/4a/4{g}a3/4A/4{g}d3/4a/4|
A3/4a/4{g}a3/4A/4{g}B3/4{d}G/4{e}G3/4{d}B/4|
{g}G3/4B/4{gde}d3/4G/4{a}g3/4f/4{g}e3/4d/4|  !
{g}c3/4d/4{gef}e3/4c/4{gAGAG}A{g}f3/4g/4|
{ag}ad3/4a/4{g}a3/4A/4{g}d3/4a/4|
A3/4a/4{g}a3/4A/4{g}B3/4{d}G/4{e}G3/4{d}B/4|  !
{g}G3/4B/4{gde}d3/4G/4{a}g3/4f/4{g}e3/4d/4|
{g}A3/4{d}c/4{gef}e3/4c/4{Gdc}d:|
